X:392
%%etbk:tnset id:113,pos:1,rep:3x,ant:
%%etbk:tnset id:122,pos:1,rep:3x,ant:
%%etbk:tnset id:262,pos:1,rep:2x,ant:
%%etbk:tnset id:263,pos:10,rep:3x,ant:
%%etbk:wsite http://www.thesession.org/tunes/display/466
%%etbk:pldat 2016-06-22T16:08,2016-06-21T16:04,2016-06-20T18:28,2016-06-18T16:19,2016-06-16T19:13,2016-05-05T14:49,2016-05-04T15:33,2016-05-02T18:58,2016-04-30T17:12,2016-03-05T15:32,2016-03-05T15:10,2016-02-27T15:13,2016-02-22T18:54,2015-06-26T17:41,2015-06-24T19:17,2015-06-23T18:45,2015-06-22T18:41,2015-06-18T19:17,2014-08-21T19:04,2014-08-20T19:21,2014-08-20T18:25,2014-06-25T15:51,2014-06-23T18:37,2014-06-13T15:43,2014-06-03T16:01,2014-06-02T19:23,2014-02-08T14:25,2013-11-18T18:00,2013-10-26T16:49,2013-10-16T16:43,2013-05-10T15:39
T: Maids Of Ardagh, The
Z: Piano Box Version by Martin Fleischmann
H: Created 2013-02-19 /  Last Modified 2013-02-19
M: 2/4
L: 1/8
R: polka
K: Dmaj
|: "D"!2!F>A !4!B!1!A | !3!d!4!e !3!f2 | "A"!3!fe/f/ !4!g!2!c | "D"!4!e!3!d !2!B!1!A | !2!F>A !4!B!1!A | !3!d!4!e !3!f2 | "A"!3!fe/f/ !4!g!2!c | "D"!4!e!3!d d2:|
|: "A"!3!ef/e/ !2!c!3!e | !4!fe !5!a!1!A | !3!ef/e/ !2!c!3!e | !4!f!3!e !2!c!1!A | !3!ef/e/ !2!c!3!e | !4!f!3!e !5!a2 | "E"!3!ef/e/ !2!d!1!B | "A"!1!B!1!A A2:|


